X: 29330
T: Newcastle
R: barndance
M: 4/4
K: Gmajor
D2|:B2 d2 G2 A2|G3 A G2 D2|B2 d2 G2 d2|e2 g4 fe|
d2 B2 A2 G2|E2 c4 dc|d2 B2 A2 G2|1 G6 d2:|2 G6 ef||
|:gfed g3 B|A2 g4 A2|G3 AB2 F2|E2 e4 ef|
gfed g3 B|A2 A2 c3 d|e2 B2 A3 G|1 G6 ef:|2 G6||

